X:467
%%etbk:tnset id:186,pos:1,rep:3,ant:,targ:Concert,env:Scealta
%%etbk:skill ?
T:Isle of Hope
H: Created 2013-02-20 /  No Piano Box Version Yet
M:4/4
L:1/4
R: song
K: Dmaj
F/G/|:A2AA|AGFE|EDEF|F3F|
G3G|GFED|DCDE|C4:|
D/C/|:B,3B,/,D/|E3D/E/|GFEF|
D3E/F/|1G>FGF|D3B,|A,4:|2GFED|DCF>E|
D4|D4|D4|D4
